src/16/panel/preferences-desktop-accessibility-panel.svg

<svg xmlns="http://www.w3.org/2000/svg" width="16" height="16" version="1.1">
 <defs>
  <style id="current-color-scheme" type="text/css">
   .ColorScheme-Text { color:#dfdfdf; } .ColorScheme-Highlight { color:#5294e2; }
  </style>
 </defs>
 <path style="fill:currentColor" class="ColorScheme-Text" d="M 7.5,0 C 6.12,0 5,1.12 5,2.5 5,3.88 6.12,5 7.5,5 8.88,5 10,3.88 10,2.5 10,1.12 8.88,0 7.5,0 Z M 1,6 V 8 H 5 V 15 H 7 V 11 H 8 V 15 H 10 V 8 H 14 V 6 Z"/>
</svg>

<svg xmlns="http://www.w3.org/2000/svg" width="16" height="16"><defs><style id="current-color-scheme" type="text/css"></style></defs><path d="M7.5 0a2.5 2.5 0 0 0 0 5 2.5 2.5 0 0 0 0-5zM1 6v2h4v7h2v-4h1v4h2V8h4V6z" fill="currentColor" color="#dfdfdf"/></svg>
